_includes/icons/ios-html.svg

<svg fill="#666" height="50" viewBox="0 0 50 50" width="50" xmlns="http://www.w3.org/2000/svg"><path d="m5.953125 4c-.511719 0-1.03125.1875-1.398437.554688-.367188.367187-.554688.886718-.554688 1.398437v38.09375c0 .507813.1875 1.03125.554688 1.398438.367187.367187.886718.554687 1.398437.554687h38.09375c.507813 0 1.03125-.1875 1.398438-.554687.367187-.367188.554687-.886719.554687-1.398438v-38.09375c0-.511719-.1875-1.03125-.554687-1.398437-.367188-.367188-.886719-.554688-1.398438-.554688zm.046875 2h38v38h-38zm6.433594 14.890625v10.109375h1.960937v-4.230469h2.058594v4.230469h1.964844v-10.109375h-1.964844v4.050781h-2.058594v-4.050781zm7.035156 0v1.8125h1.78125v8.296875h1.96875v-8.296875h1.796875v-1.8125zm6.941406 0-.734375 10.109375h1.699219l.160156-3.511719c.0625-1.003906.121094-2.277343.152344-3.375h.046875c.148438 1.097657.417969 2.355469.613281 3.167969l.839844 3.550781h1.394531l.871094-3.613281c.191406-.777344.464844-2.023437.644531-3.105469h.042969c-.027344 1.082032.046875 2.386719.09375 3.347657l.175781 3.539062h1.757813l-.617188-10.109375h-2.066406l-.796875 3.660156c-.269531 1.273438-.496094 2.417969-.644531 3.542969h-.027344c-.183594-1.144531-.4375-2.269531-.722656-3.542969l-.808594-3.660156zm9.199219 0v10.109375h4.558594v-1.664062h-2.59375v-8.445313z"/></svg>

<svg xmlns="http://www.w3.org/2000/svg" viewBox="0 0 50 50" width="50" height="50" fill="#666"><path d="M 5.953125 4 C 5.441406 4 4.921875 4.1875 4.554688 4.554688 C 4.1875 4.921875 4 5.441406 4 5.953125 L 4 44.046875 C 4 44.554688 4.1875 45.078125 4.554688 45.445313 C 4.921875 45.8125 5.441406 46 5.953125 46 L 44.046875 46 C 44.554688 46 45.078125 45.8125 45.445313 45.445313 C 45.8125 45.078125 46 44.558594 46 44.046875 L 46 5.953125 C 46 5.441406 45.8125 4.921875 45.445313 4.554688 C 45.078125 4.1875 44.558594 4 44.046875 4 Z M 6 6 L 44 6 L 44 44 L 6 44 Z M 12.433594 20.890625 L 12.433594 31 L 14.394531 31 L 14.394531 26.769531 L 16.453125 26.769531 L 16.453125 31 L 18.417969 31 L 18.417969 20.890625 L 16.453125 20.890625 L 16.453125 24.941406 L 14.394531 24.941406 L 14.394531 20.890625 Z M 19.46875 20.890625 L 19.46875 22.703125 L 21.25 22.703125 L 21.25 31 L 23.21875 31 L 23.21875 22.703125 L 25.015625 22.703125 L 25.015625 20.890625 Z M 26.410156 20.890625 L 25.675781 31 L 27.375 31 L 27.535156 27.488281 C 27.597656 26.484375 27.65625 25.210938 27.6875 24.113281 L 27.734375 24.113281 C 27.882813 25.210938 28.152344 26.46875 28.347656 27.28125 L 29.1875 30.832031 L 30.582031 30.832031 L 31.453125 27.21875 C 31.644531 26.441406 31.917969 25.195313 32.097656 24.113281 L 32.140625 24.113281 C 32.113281 25.195313 32.1875 26.5 32.234375 27.460938 L 32.410156 31 L 34.167969 31 L 33.550781 20.890625 L 31.484375 20.890625 L 30.6875 24.550781 C 30.417969 25.824219 30.191406 26.96875 30.042969 28.09375 L 30.015625 28.09375 C 29.832031 26.949219 29.578125 25.824219 29.292969 24.550781 L 28.484375 20.890625 Z M 35.609375 20.890625 L 35.609375 31 L 40.167969 31 L 40.167969 29.335938 L 37.574219 29.335938 L 37.574219 20.890625 Z"/></svg>
